X: 474
T: The Peevish Child
N:"Slow"
N:Irish title: an paisdin ne.imnea.c
B:O'Neill's 474
Z:Transcribed by henrik.norbeck@mailbox.swipnet.se
M:2/4
L:1/8
K:Gm
(G>A) (BG/E/) | (~F>G) (AB/c/) | dA c(A/G/) | F3 F |
.G(G/A/ B/G/F/D/) | (~F>G) (AB/c/) | Td>A (c/A/F/A/) | G3 G ||
d>e dc |.d/(b/a/^f/) g2 | d>c BG | F>G A(B/A/) |
.G(G A/G/F/D/) | (~F>G) (AB/c/) | Td>A (c/A/F/A/) | G3 G ||


